!!!!SEGMENT: pl-kk--kk-i-111--012-003_anonim--deo-gratias-de-martyribus-3tium.krn
!!!id: 18xx:2583
!!!COM: Anonim
!!!COM-rism: pe30004985
!!!CDT:
!!!CNT:
!!!OTL: Deo gratias – De Martyribus 3tium
!!!PDT: 1824
!!!SMS-siglum: PL-Kk
!!!SMS-shelfmark: Kk.I.111
!!!NIFC-rismID: 1001157698
!!!URL-scan: http://repozytorium.nifc.pl/skany/pl-kk-nut--i-111
!!!ONB-nifc: UWAGA: A, T1, T2. Podział na poszególne Deo gratias. A: skan 0004 (m.in)
!!!SMS-variant:
!!!SMS-altvar:
**kern	**text	**kern	**text	**kern	**text
*part3	*part3	*part2	*part2	*part1	*part1
*staff3	*staff3	*staff2	*staff2	*staff1	*staff1
*I"Tenore Vagante.	*	*I"Tenore Chorale.	*	*I"Alto.	*
*I'T 2	*	*I'T 1	*	*I'A	*
*clefC4	*	*clefC4	*	*clefC3	*
*k[b-]	*	*k[b-]	*	*k[b-]	*
*M2/1	*	*M2/1	*	*M2/1	*
*all\right	*	*all\right	*	*all\right	*
*2\right	*	*2\right	*	*2\right	*
*met(c|)	*	*met(c|)	*	*met(c|)	*
=1-	=1-	=1-	=1-	=1-	=1-
!LO:TX:a:t=1.	!	!	!	!	!
!LO:TX:t=P:problem:kreska pseudotaktowa	!	!	!	!	!
1r	.	0r	.	2r	.
.	.	.	.	1a	De-
2r	.	.	.	.	.
!	!	!	!	!LO:TX:t=P:problem:kreska pseudotaktowa	!
!	!	!	!	!LO:TX:t=P:problem:2\right:global	!
1d\	De-	.	.	2g\	.
=2-	=2-	=2-	=2-	=2	=2-
!	!	!LO:TX:t=P:problem:kreska pseudotaktowa	!	!	!
.	.	1r	.	2a\	-o
!LO:TX:t=P:problem:kreska pseudotaktowa	!	!	!	!	!
!LO:TX:t=P:problem:2\right:global	!	!	!	!	!
2c#X\	.	.	.	4e\	.
!	!	!	!	!LO:TX:t=P:problem:kreska pseudotaktowa	!
.	.	.	.	4f\	.
!LO:TX:t=P:problem:kreska pseudotaktowa	!	!	!	!	!
1d	-o	2r	.	4g\	.
.	.	.	.	4d\	gra-
!	!	!	!	!LO:TX:t=P:problem:kreska pseudotaktowa:między nutą a kropką	!
.	.	1d\	De-	2.g\	.
=3	=3-	=3-	=3-	=3	=3-
2.A\	gra-	.	.	.	.
.	.	.	.	4f\	.
!	!	!LO:TX:t=P:problem:kreska pseudotaktowa	!	!	!
!	!	!LO:TX:t=P:problem:2\right:global	!	!	!
.	.	2c#X\	.	4e\	.
!LO:TX:t=P:problem:kreska pseudotaktowa	!	!	!	!LO:TX:t=P:problem:kreska pseudotaktowa	!
4A\	-ti-	.	.	4e\	-ti-
2A,\	-as	2d\	-o	2f\	-as
!LO:TX:t=P:problem:kreska pseudotaktowa	!	!	!	!LO:TX:t=P:problem:kreska pseudotaktowa:między nutą a kropką	!
2f\	De-	1A\	gra-	2.a\	De-
=4	=4-	=4-	=4-	=4	=4-
2c\	-o	.	.	.	.
.	.	.	.	4g\	.
!	!	!LO:TX:t=P:problem:kreska pseudotaktowa	!	!	!
1d	gra-	2A\	-ti-	4f\	.
!	!	!	!	!LO:TX:t=P:problem:kreska pseudotaktowa	!
.	.	.	.	4d\	.
!	!	!LO:TX:t=P:problem:kreska pseudotaktowa	!	!	!
.	.	1B-X	-as	2.g\	.
1e\	.	.	.	.	.
!	!	!	!	!LO:TX:t=P:problem:kreska pseudotaktowa	!
.	.	.	.	4f\	.
=5-	=5-	=5	=5-	=5	=5-
!	!	!LO:TX:t=P:problem:kreska pseudotaktowa	!	!	!
.	.	1c	.	4e\	-o
.	.	.	.	4c\	.
4f\	.	.	.	1a	.
!LO:TX:t=P:problem:kreska pseudotaktowa	!	!	!	!	!
4e\	.	.	.	.	.
!	!	!LO:TX:t=P:problem:kreska pseudotaktowa	!	!	!
2d\	.	1d	De-	.	.
!LO:TX:t=P:problem:kreska pseudotaktowa	!	!	!	!LO:TX:t=P:problem:kreska pseudotaktowa	!
2g\	-ti-	.	.	2g\	.
=6	=6-	=6	=6-	=6	=6-
!LO:TX:t=P:problem:kreska pseudotaktowa	!	!LO:TX:t=P:problem:kreska pseudotaktowa	!	!	!
1c	-as.	1c	.	2a\	gra-
.	.	.	.	4e\	.
!	!	!	!	!LO:TX:t=P:problem:kreska pseudotaktowa	!
.	.	.	.	4f\	.
!	!	!LO:TX:t=P:problem:kreska pseudotaktowa	!	!	!
4d\	De-	1B-	.	2g\	.
4c\	.	.	.	.	.
4B-\	.	.	.	4d\	.
!LO:TX:t=P:problem:kreska pseudotaktowa	!	!	!	!LO:TX:t=P:problem:kreska pseudotaktowa	!
4G\	.	.	.	4e\	.
=7	=7-	=7	=7-	=7	=7-
4c\	-o	2A\	-o	2f\	.
4B-\	.	.	.	.	.
4A\	.	1d	gra-	4c\	.
!LO:TX:t=P:problem:kreska pseudotaktowa	!	!	!	!LO:TX:t=P:problem:kreska pseudotaktowa	!
4F/	.	.	.	4d\	.
!LO:TX:t=P:problem:kreska pseudotaktowa	!	!	!	!	!
1G	.	.	.	4e\	.
.	.	.	.	4f\	.
!	!	!LO:TX:t=P:problem:kreska pseudotaktowa	!	!	!
.	.	2c#X\	.	1g\	.
=8	=8-	=8	=8-	=8-	=8-
2A\	gra-	2d\	.	.	.
!	!	!	!	!LO:TX:t=P:problem:kreska pseudotaktowa	!
1d	.	1A	.	2f\	.
.	.	.	.	2.e\	.
!LO:TX:t=P:problem:kreska pseudotaktowa	!	!LO:TX:t=P:problem:kreska pseudotaktowa	!	!	!
2c#X\	-ti-	2A\	-ti-	.	.
!	!	!	!	!LO:TX:t=P:problem:kreska pseudotaktowa	!
.	.	.	.	4e\	-ti-
=9	=9-	=9	=9-	=9	=9-
0d;	-as.	0A;	-as.	0f#X;	-as.
==	==	==	==	==	==
*-	*-	*-	*-	*-	*-
!!!system-decoration: [(s1,s2,s3)]
!!!ENC: Kamil Watkowski
!!!END: 2021-08-04
